X: 2139
T: Polonäs, sexdregasamlingen del 2 nr 84
B: Sexdregasamlingen del 2 nr 84
S: efter Anders Larsson
O: Sexdrega, Västergötland
R: Slängpolska
Z: 2011-11-16 av Nils L
M: 3/4
L: 1/16
K: D
d2cd e2de f2d2 | e2d2 c2B2 c2A2 | d2cd e2de f2d2 | efed c2B^G A4 ::
f2ef g2fg a4 | f2ed c2ec A4 | F2E2 F2G2 A4 | F2ED C2E2 A,4 |
F2ED C2E2 A,4 | f2ga e2fg d2ef | efec d2AF D4 :|
(:musicend:)
(:music:)
